!!!COM: Anonymous
!!!OTL@@POL: O Baranku niewinny
!!!TXO: Polish
!!!ODT: 
!!!GTL: Hymnbook L 1642
!!!ARL: Biblioteka Diecezjalna w Sandomierzu 
!!!voices:	4
**kern	**text	**kern	**text	**kern	**text	**kern	**text
*staff4	*staff4	*staff3	*staff3	*staff2	*staff2	*staff1	*staff1
*I"Basso	*	*I"Canto III	*	*I"Canto II	*	*I"Canto I	*
=1-	=1-	=1-	=1-	=1-	=1-	=1-	=1-
*clefF4	*	*clefG2	*	*clefG2	*	*clefG2	*
*k[b-]	*	*k[b-]	*	*k[b-]	*	*k[b-]	*
*M3/1	*	*M3/1	*	*M3/1	*	*M3/1	*
0GG	O	0g	O	0b-	O	0dd	O
1D	Ba-	1f	Ba-	1a	Ba-	1dd	Ba-
=2	=2	=2	=2	=2	=2	=2	=2
0BB-	-ran-	0b-	-ran-	0b-	-ran-	1.dd	-ran-
.	.	.	.	.	.	2ee-i\	.
1FF	-ku	1a	-ku	1cc	-ku	1ff	-ku
=3	=3	=3	=3	=3	=3	=3	=3
0GG	nie-	0g	nie-	0b-	nie-	1dd	nie-
.	.	.	.	.	.	0dd	-win-
1GG	-win-	1g	-win-	1b-	-win-	.	.
=4	=4	=4	=4	=4	=4	=4	=4
0.D	-ny	0.f#	-ny	0.a	-ny	0.dd	-ny
=5	=5	=5	=5	=5	=5	=5	=5
0D	O-	0f	O-	1a	O-	0dd	O-
.	.	.	.	1b-	.	.	.
1C	-broń-	1g	-broń-	1cc	-broń-	1ee-i	-broń-
=6	=6	=6	=6	=6	=6	=6	=6
0BB-	-co	0b-	-co	0dd	-co	0ff	-co
1GG	m&oacute;j	1b-	m&oacute;j	1dd	m&oacute;j	1gg	m&oacute;j
=7	=7	=7	=7	=7	=7	=7	=7
0AA	je-	0a	je-	0cc#	je-	1ee	je-
.	.	.	.	.	.	0ee	-dy-
1AA	-dy-	1a	-dy-	1cc#	-dy-	.	.
=8	=8	=8	=8	=8	=8	=8	=8
0.D	-ny	0.a	-ny	0.dd	-ny	0.dd	-ny
=9||	=9||	=9||	=9||	=9||	=9||	=9||	=9||
0G	Niech	0g	Niech	0b-	Niech	0dd	Niech
1F	dziś	1a	dziś	1a	dziś	1dd	dziś
=10	=10	=10	=10	=10	=10	=10	=10
0E-	od-	0b-	od-	0g	od-	0gg	od-
1D	-po-	1b-	-po-	1b-	-po-	1ff	-po-
=11	=11	=11	=11	=11	=11	=11	=11
0C	-cznę	0cc	-cznę	0b-	-cznę	0ee-	-cznę
1C	w~To-	1cc	w~To-	1a	w~To-	1ee-	w~To-
=12	=12	=12	=12	=12	=12	=12	=12
0.BB-	-bie	0.f	-bie	0.b-	-bie	0.dd	-bie
=13	=13	=13	=13	=13	=13	=13	=13
1.BB-	Bło-	0f	Bło-	0b-	Bło-	1.dd	Bło-
2C/	.	.	.	.	.	2ee-i\	.
2D\	-go	1f	-go	1b-	-go	1ff	-go
2E-i\	.	.	.	.	.	.	.
=14	=14	=14	=14	=14	=14	=14	=14
0F	ser-	0a	ser-	1.a	ser-	1.cc	ser-
.	.	.	.	2b-\	.	2dd\	.
1C	-cu	1g	-cu	1cc	-cu	1ee-	-cu
=15	=15	=15	=15	=15	=15	=15	=15
0D	w~tym	0f#	w~tym	1b-	w~tym	1dd	w~tym
.	.	.	.	0a	gro-	0dd	gro-
1D	gro-	1f#	gro-	.	.	.	.
=16	=16	=16	=16	=16	=16	=16	=16
0.GG	-bie	0.g	-bie	0.b-	-bie	0.dd	-bie
=17	=17	=17	=17	=17	=17	=17	=17
1.BB-	bło-	0f	bło-	0b-	bło-	1.dd	bło-
2C/	.	.	.	.	.	2ee-i\	.
2D\	-go	1f	-go	1b-	-go	1ff	-go
2E-i\	.	.	.	.	.	.	.
=18	=18	=18	=18	=18	=18	=18	=18
0F	ser-	0a	ser-	1.a	ser-	1.cc	ser-
.	.	.	.	2b-\	.	2dd\	.
1C	-cu	1g	-cu	1cc	-cu	1ee-	-cu
=19	=19	=19	=19	=19	=19	=19	=19
0D	w~tym	0f#	w~tym	1b-	w~tym	1dd	w~tym
.	.	.	.	0a	gro-	0dd	gro-
1D	gro-	1f#	gro-	.	.	.	.
=20	=20	=20	=20	=20	=20	=20	=20
0.GG	-bie.	0.g	-bie.	0.bni	-bie.	0.dd	-bie.
==	==	==	==	==	==	==	==
*-	*-	*-	*-	*-	*-	*-	*-
!!!GTL: Hymnbook L 1642
!!!EFL: 12/39
!!!YEM: Creative Commons CC/BY/NC/SA 4.0
!!!ENC: Marcin Konik
!!!END: 2015-02-14 
!!!EED: Marcin Konik
!!!EEV: 
!!!ONB: Translated from MusicXML and edited by Marcin Konik
!!!CharacterEncoding: utf-8
!!!RDF**kern: i=editorial accidental
!!muse2ps: z14jc180F
!!title: @{OTL}, @{GTL}: @{pag}, ed. @{ENC}
